img/upwork-tile.svg

<svg width="512" height="512" viewBox="0 0 512 512" fill="none" xmlns="http://www.w3.org/2000/svg">
<path d="M511.85 0H0.15C0.0671573 0 0 0.0671573 0 0.15V511.85C0 511.933 0.0671573 512 0.15 512H511.85C511.933 512 512 511.933 512 511.85V0.15C512 0.0671573 511.933 0 511.85 0Z" fill="#3DBFD5"/>
<path d="M357.2 296.9C340.2 296.9 324.2 289.7 309.8 278L313.3 261.4L313.4 260.8C316.6 243.2 326.5 213.6 357.2 213.6C380.2 213.6 398.9 232.3 398.9 255.3C398.9 278.3 380.2 296.9 357.2 296.9V296.9ZM357.2 171.4C318 171.4 287.7 196.8 275.3 238.7C256.5 210.4 242.2 176.5 233.9 147.9H191.7V257.6C191.7 279.3 174.1 296.9 152.4 296.9C130.7 296.9 113.1 279.3 113.1 257.6V147.8H71V257.5C71 302.4 107.5 339.3 152.4 339.3C197.3 339.3 233.8 302.4 233.8 257.5V239.1C242 256.2 252 273.5 264.2 288.7L238.4 410.1H281.5L300.2 322.1C316.6 332.6 335.4 339.2 357 339.2C403.2 339.2 440.8 301.4 440.8 255.1C440.9 209 403.4 171.4 357.2 171.4" fill="white"/>
</svg>

<svg xmlns="http://www.w3.org/2000/svg" viewBox="0 0 512 512"><rect width="512" height="512" rx="15%" fill="#6fda44"/><path fill="#fff" d="M357.2 296.9c-17 0-33-7.2-47.4-18.9l3.5-16.6.1-.6c3.2-17.6 13.1-47.2 43.8-47.2 23 0 41.7 18.7 41.7 41.7s-18.7 41.6-41.7 41.6zm0-125.5c-39.2 0-69.5 25.4-81.9 67.3-18.8-28.3-33.1-62.2-41.4-90.8h-42.2v109.7c0 21.7-17.6 39.3-39.3 39.3s-39.3-17.6-39.3-39.3V147.8H71v109.7c0 44.9 36.5 81.8 81.4 81.8s81.4-36.9 81.4-81.8v-18.4c8.2 17.1 18.2 34.4 30.4 49.6l-25.8 121.4h43.1l18.7-88c16.4 10.5 35.2 17.1 56.8 17.1 46.2 0 83.8-37.8 83.8-84.1.1-46.1-37.4-83.7-83.6-83.7"/></svg>
